!!!COM: Corelli, Arcangelo
!!!OTL: 
!!!ONM: Opus 6, No. 3
!!!OMV: 5
!!!CDT: 1653/2/17/-1713/1/8/
!!!OCY: Italia
**kern	**kern	**kern
*clefC	*clefG	*clefG
*k[b-e-]	*k[b-e-]	*k[b-e-]
*g:	*g:	*g:
*M12/8	*M12/8	*M12/8
=1	=1	=1
1.r	1.r	4r
.	.	8cc
.	.	8b
.	.	8g
.	.	8b
.	.	8cc
.	.	8g
.	.	8cc
.	.	.
.	.	8dd
.	.	8g
.	.	8dd
=2	=2	=2
1.r	4r	4ee-
.	8cc	8ee-
.	8b	8dd
.	8g	8g
.	.	.
.	8b	8dd
.	8cc	8ee-
.	.	.
.	8g	8g
.	.	.
.	8cc	8ee-
.	.	.
.	8dd	8ff
.	.	.
.	8g	8g
.	.	.
.	8dd	8ff
.	.	.
=3	=3	=3
4.r	4.ee-	4.gg
.	.	.
.	.	.
.	.	.
.	.	.
8G	2.ee-	4.gg
.	.	.
8F	.	.
.	.	.
8G	.	.
.	.	.
8A	.	2.ff
.	.	.
8G	.	.
.	.	.
8A	.	.
.	.	.
.	.	.
8B	[4.dd	.
8A	.	.
.	.	.
8B	.	.
=4	=4	=4
8c	4.dd]	2.ee-
8B	.	.
8c	.	.
.	.	.
8E-	2.cc	.
8D	.	.
.	.	.
.	.	.
8E-	.	.
8F	.	2.dd
.	.	.
8E-	.	.
8F	.	.
8G	4.b	.
8F	.	.
.	.	.
8G	.	.
=5	=5	=5
4C	4.cc	4cc
.	.	.
.	.	.
8c	.	8ee-
.	.	.
8B	4.g	8dd
8G	.	8g
8B	.	8dd
8c	4.c	8ee-
.	.	.
8G	.	8g
8c	.	8ee-
.	.	.
8B	4.g	8dd
8G	.	8g
8B	.	8dd
=6	=6	=6
4c	4.r	4ee-
.	.	.
8e-	.	8gg
.	.	.
8d	4.b-	8ff
8B-	.	8b-
.	.	.
8d	.	8ff
8e-	4.e-	8gg
8B-	.	8b-
8e-	.	8gg
8d	4.b-	8ff
8B-	.	8b-
8d	.	8ff
=7	=7	=7
4e-	4.r	4gg
.	.	.
.	.	.
8f	.	8aa-
8e	4.cc	8gg
8c	.	8cc
8e	.	8gg
8f	4.f	8aa-
8c	.	8cc
8f	.	8aa-
8e	4.cc	8gg
.	.	.
8c	.	8cc
8e	.	8gg
.	.	.
=8	=8	=8
4.f	4.r	4.aa-
.	.	.
4.g	4.b	2.gg
.	.	.
.	.	.
2.a-	2.cc	.
.	.	.
.	.	4.ff
.	.	.
.	.	.
=9	=9	=9
4.g	4.b	4.gg
.	.	.
.	.	.
8c	4.r	2.ee-
.	.	.
8B-	.	.
8c	.	.
.	.	.
8F	2.a-	.
8G	.	.
.	.	.
8A-	.	.
8B-	.	[4.dd
.	.	.
.	.	.
8A-	.	.
8B-	.	.
.	.	.
=10	=10	=10
8E-	2.g	4.dd]
8F	.	.
.	.	.
8G	.	.
8A-	.	2.cc
8G	.	.
8A-	.	.
.	.	.
.	.	.
8D	2.f	.
8E-	.	.
8F	.	.
8G	.	4.b
8F	.	.
8G	.	.
=11	=11	=11
4.C	4.e-	4.cc
.	.	.
.	.	.
4.c	4.r	2.a-
4.B-	2.dd	.
4.E-	.	[4.g
.	.	.
.	.	.
=12	=12	=12
4.A-	2.cc	4.g]
.	.	.
.	.	.
.	.	.
.	.	.
4.AA-	.	4.f
.	.	.
.	.	.
.	.	.
.	.	.
4.GG	4.b-	4.g
.	.	.
.	.	.
.	.	.
.	.	.
4.r	4.g	4.e-
.	.	.
.	.	.
.	.	.
.	.	.
=13	=13	=13
4.r	4.f	4.d
.	.	.
.	.	.
.	.	.
.	.	.
4.C	4.e-	4.c
.	.	.
2.G	4.d	4.B
.	4.g	4.e-
.	.	.
.	.	.
=14	=14	=14
4.r	4.f	4.d
.	.	.
4.C	4.e-	4.c
.	.	.
2.GG	2.d	2.B
.	.	.
.	.	.
=15	=15	=15
1.r	1.r	4r
.	.	8gg
.	.	.
.	.	8ff#
.	.	8dd
.	.	8ff#
.	.	8gg
.	.	.
.	.	8dd
.	.	8gg
.	.	.
.	.	8aa
.	.	8dd
.	.	.
.	.	.
.	.	8aa
=16	=16	=16
1.r	4r	4bb-
.	.	.
.	8gg	8bb-
.	8ff#	8aa
.	8dd	8dd
.	8ff#	8aa
.	8gg	8bb-
.	.	.
.	.	.
.	8dd	8dd
.	8gg	8bb-
.	8aa	8ccc
.	8dd	8dd
.	.	.
.	8aa	8ccc
=17	=17	=17
4.r	4.bb-	4.ddd
.	.	.
.	.	.
.	.	.
8D	2.bb-	4.ddd
8C	.	.
.	.	.
8D	.	.
8E	.	2.ccc
8D	.	.
8E	.	.
8F#	[4.aa	.
8E	.	.
.	.	.
8F#	.	.
=18	=18	=18
8G	4.aa]	2.bb-
8F#	.	.
8G	.	.
.	.	.
8BB-	2.gg	.
8AA	.	.
.	.	.
8BB-	.	.
8C	.	2.aa
.	.	.
8BB-	.	.
8C	.	.
8D	4.ff#	.
8C	.	.
8D	.	.
=19	=19	=19
2.GG	2.gg	2gg
.	.	.
.	.	.
.	.	8gg
.	.	8aa-
4.G	4.dd	8bb-
.	.	8gg
.	.	8aa-
4.E	4.gg	8bb-
.	.	8aa-
.	.	8gg
.	.	.
=20	=20	=20
4.F	4.cc	2aa-
.	.	.
.	.	.
4.r	4.r	.
.	.	8gg
.	.	8ff
4.c	4.gg	8ee
.	.	8ff
.	.	.
.	.	8gg
4.C	4.ccc	8cc
.	.	8ff
.	.	8ee
=21	=21	=21
4.FF	4.aa-	2ff
4.r	4.r	.
.	.	.
.	.	8ff
.	.	8gg
4.F	4.cc	8aa-
.	.	8ff
.	.	8gg
4.D	4.ff	8aa-
.	.	8gg
.	.	8ff
.	.	.
.	.	.
=22	=22	=22
4.E-	4.b-	2gg
.	.	.
4.r	4.r	.
.	.	.
.	.	8ff
.	.	8ee-
.	.	.
4.B-	4.ff	8dd
.	.	.
.	.	8ee-
.	.	.
.	.	.
.	.	8ff
4.BB-	4.bb-	8b-
.	.	.
.	.	8ee-
.	.	8dd
.	.	.
=23	=23	=23
4.EE-	4.gg	4.ee-
.	.	.
2..r	4.r	8r
.	.	.
.	.	.
.	.	8gg
.	.	8gg
.	4.cc	8ee-
.	.	8gg
.	.	8ee-
.	4.b	8dd
4r	.	8gg
.	.	8dd
.	.	.
=24	=24	=24
2.r	4.cc	8ee-
.	.	8gg
.	.	8ee-
.	4.g	8dd
.	.	8gg
.	.	8dd
4.c	4.cc	8ee-
.	.	8gg
.	.	.
.	.	8ee-
4.G	4.b	8dd
.	.	8gg
.	.	8dd
=25	=25	=25
4.C	4.cc	8ee-
.	.	8gg
.	.	.
.	.	8ee-
.	.	.
2..r	4.r	8cc
.	.	.
.	.	8ff
.	.	8cc
.	4.b-	8dd
.	.	8ff
.	.	8dd
.	4.a	8cc
4r	.	8ff
.	.	8cc
=26	=26	=26
2.r	4.b-	8dd
.	.	8ff
.	.	8dd
.	4.f	8cc
.	.	8ff
.	.	8cc
4.B-	4.b-	8dd
.	.	8ff
.	.	8dd
.	.	.
4.F	4.a	8cc
.	.	8ff
.	.	.
.	.	8cc
=27	=27	=27
4.BB-	4.b-	8dd
.	.	8ff
.	.	8dd
2..r	4.r	8b-
.	.	8ee-
.	.	.
.	.	8b-
.	4.a-	8cc
.	.	.
.	.	8ee-
.	.	8cc
.	4.g	8b-
4r	.	8ee-
.	.	8b-
=28	=28	=28
2.r	4.a-	8cc
.	.	.
.	.	8ee-
.	.	8cc
.	4.e-	8b-
.	.	8ee-
.	.	.
.	.	8b-
4.A-	4.a-	8cc
.	.	.
.	.	8ee-
.	.	8cc
.	.	.
.	.	.
4.E-	4.g	8b-
.	.	8ee-
.	.	.
.	.	8b-
=29	=29	=29
4.AA-	[2a-	8cc
.	.	.
.	.	8dd
.	.	8ee-
4.F	.	8dd
.	8a-]	8ee-
.	.	.
*	*	*
!!!RWG: This file only contains pitch and duration data.
!!!RWG: Transposing instruments are not transposed.
!!!RWG: Durations of rests and tied notes may be interpreted.
.	8a-	8cc
4.G	4.d	4.b
4.r	4.r	8r
.	.	8gg
.	.	8gg
=30	=30	=30
4.e-	4.cc	8gg
.	.	8cc
.	.	8gg
4.r	4.r	8gg
.	.	8cc
.	.	8gg
4.f	4.cc	8aa-
.	.	8cc
.	.	8aa-
4.r	4.r	8aa-
.	.	8cc
.	.	8aa-
=31	=31	=31
4.d	4.b	8aa-
.	.	8b
.	.	8aa-
4.r	4.r	8aa-
.	.	8b
.	.	8aa-
4.e-	4.cc	8gg
.	.	8cc
.	.	8gg
4.r	4.r	8gg
.	.	8cc
.	.	8gg
=32	=32	=32
4.A-	4.cc	8ff
.	.	8cc
.	.	8ff
4.F	2.ff	8ff
.	.	8cc
.	.	8aa-
4.G	.	4.b
4.C	4ee-	[4.cc
.	8dd	.
=33	=33	=33
4.G	4.ee-	8cc]
.	.	8dd
.	.	8cc
4.GG	4.dd	8g
.	.	8cc
.	.	8b
4.C	4.cc	4.c
4.r	4.r	8r
.	.	8gg
.	.	8gg
=34	=34	=34
4.e-	4.cc	8gg
.	.	8cc
.	.	8gg
4.r	4.r	8gg
.	.	8cc
.	.	8gg
4.f	4.cc	8aa-
.	.	8cc
.	.	8aa-
4.r	4.r	8aa-
.	.	8cc
.	.	8aa-
=35	=35	=35
4.d	4.b	8aa-
.	.	8b
.	.	8aa-
4.r	4.r	8aa-
.	.	8b
.	.	8aa-
4.e-	4.cc	8gg
.	.	8cc
.	.	8gg
4.r	4.r	8gg
.	.	8cc
.	.	8gg
=36	=36	=36
4.A-	4.dd	8ff
.	.	8cc
.	.	8ff
4.F	2.ff	8ff
.	.	8cc
.	.	8aa-
4.G	.	4.b
4.C	4ee-	[4.cc
.	8dd	.
=37	=37	=37
4.G	4.ee-	8cc]
.	.	8dd
.	.	8cc
4.GG	4.dd	8g
.	.	8cc
.	.	8b
4.C	4.cc	4cc
.	.	8g
4r	4r	[4.a-
8c	8ee-	.
=38	=38	=38
[2B-	[2dd	4a-]
.	.	8f
.	.	[2g
8B-]	8dd]	.
8G	8b	.
[2A-	[2cc	.
.	.	8g]
.	.	8e-
.	.	[4.f
8A-]	8cc]	.
8F	8dd	.
=39	=39	=39
4.G	4.b	4.f]
4.C	2.cc	4.e-
4.G	.	2.d
4.GG	4.b	.
=40	=40	=40
4.C	4.cc	4c
.	.	8g
4r	4r	[2a-
8c	8ee-	.
[2B-	[2dd	.
.	.	8a-]
.	.	8f
.	.	[4.g
8B-]	8dd]	.
8G	8b	.
=41	=41	=41
[2A-	[2cc	4g]
.	.	8e-
.	.	2.f
8A-]	8cc]	.
8F	8a-	.
4.G	4.B	.
4.C	[4.c	4.e-
=42	=42	=42
4.G	4.c]	2.d
4.GG	4.B	.
2.C	2.c	2.c
==	==	==
*-	*-	*-
!!!RWG: This file only contains pitch and duration data.
!!!RWG: Transposing instruments are not transposed.
!!!RWG: Durations of rests and tied notes may be interpreted.
!!!RWG: Key is interpreted using the Humdrum key tool.
!!!SCA: 
!!!YOR: Chrysander Edition
!!!AGN: concerto grosso
!!!AFT: stage1
!!!ENC: F. Bennion
!!!END: 1997/04/15
!!!AST: baroque
!!!YEC: Copyright 1994, Center for Computer Assisted Research in the Humanities
!!!YEM: Rights to all derivative electronic formats reserved.
!!!YEM: Refer to licensing agreement for further details.
!!!YEN: United States of America
!!!EED: W.B. Hewlett
!!!KEY: 2162635072
!!!EMD: Converted from MuseData to Humdrum Aug 9, 1999, by Bret Aarden using muse2kern.
!!!VTS: 2538359779
